src/extras-unicode/symbol-other/2BC4.svg

<svg id="emoji" viewBox="0 0 72 72" xmlns="http://www.w3.org/2000/svg">
  <g id="grid">
    <path fill="#b3b3b3" d="M68,4V68H4V4H68m4-4H0V72H72V0Z"/>
    <path fill="none" stroke="#00a5ff" stroke-miterlimit="10" stroke-width="0.1" d="M12.923,10.9583H59.0769A1.9231,1.9231,0,0,1,61,12.8814V59.0352a1.9231,1.9231,0,0,1-1.9231,1.9231H12.9231A1.9231,1.9231,0,0,1,11,59.0352V12.8813A1.923,1.923,0,0,1,12.923,10.9583Z"/>
    <rect x="16" y="4" rx="2.2537" width="40" height="64" fill="none" stroke="#00a5ff" stroke-miterlimit="10" stroke-width="0.1"/>
    <rect x="16" y="4" rx="2.2537" width="40" height="64" transform="translate(72) rotate(90)" fill="none" stroke="#00a5ff" stroke-miterlimit="10" stroke-width="0.1"/>
    <circle cx="36" cy="36" r="29" fill="none" stroke="#00a5ff" stroke-miterlimit="10" stroke-width="0.1"/>
  </g>
  <g id="color"/>
  <g id="line">
    <path stroke="#000000" stroke-width="2" d="M15.177,16.259 C15.38,15.769 15.769,15.38 16.259,15.177 L35.235,7.317 C35.725,7.114 36.275,7.114 36.765,7.317 L55.741,15.177 C56.231,15.38 56.62,15.769 56.823,16.259 L64.683,35.235 C64.886,35.725 64.886,36.275 64.683,36.765 L56.823,55.741 C56.62,56.231 56.231,56.62 55.741,56.823 L36.765,64.683 C36.275,64.886 35.725,64.886 35.235,64.683 L16.259,56.823 C15.769,56.62 15.38,56.231 15.177,55.741 L7.317,36.765 C7.114,36.275 7.114,35.725 7.317,35.235 L15.177,16.259 z"/>
  </g>
</svg>

<svg viewBox="0 0 72 72" xmlns="http://www.w3.org/2000/svg"><path fill="#b3b3b3" d="M68 4v64H4V4h64m4-4H0v72h72V0z"/><path fill="none" stroke="#00a5ff" stroke-miterlimit="10" stroke-width=".1" d="M12.923 10.958h46.154A1.923 1.923 0 0161 12.881v46.154a1.923 1.923 0 01-1.923 1.923H12.923A1.923 1.923 0 0111 59.035V12.881a1.923 1.923 0 011.923-1.923z"/><rect x="16" y="4" rx="2.254" width="40" height="64" fill="none" stroke="#00a5ff" stroke-miterlimit="10" stroke-width=".1"/><rect x="16" y="4" rx="2.254" width="40" height="64" transform="rotate(90 36 36)" fill="none" stroke="#00a5ff" stroke-miterlimit="10" stroke-width=".1"/><circle cx="36" cy="36" r="29" fill="none" stroke="#00a5ff" stroke-miterlimit="10" stroke-width=".1"/><path d="M15.177 16.259c.203-.49.592-.879 1.082-1.082l18.976-7.86a1.998 1.998 0 011.53 0l18.976 7.86c.49.203.879.592 1.082 1.082l7.86 18.976c.203.49.203 1.04 0 1.53l-7.86 18.976c-.203.49-.592.879-1.082 1.082l-18.976 7.86c-.49.203-1.04.203-1.53 0l-18.976-7.86a1.999 1.999 0 01-1.082-1.082l-7.86-18.976a1.998 1.998 0 010-1.53l7.86-18.976z" stroke-linecap="round" stroke-miterlimit="10" stroke-width="6" stroke="#fff" fill="none" stroke-linejoin="round"/><path stroke="#000" stroke-width="2" d="M15.177 16.259c.203-.49.592-.879 1.082-1.082l18.976-7.86a1.998 1.998 0 011.53 0l18.976 7.86c.49.203.879.592 1.082 1.082l7.86 18.976c.203.49.203 1.04 0 1.53l-7.86 18.976c-.203.49-.592.879-1.082 1.082l-18.976 7.86c-.49.203-1.04.203-1.53 0l-18.976-7.86a1.999 1.999 0 01-1.082-1.082l-7.86-18.976a1.998 1.998 0 010-1.53l7.86-18.976z"/></svg>
